packages/symbols/svgs/solid/layer-group-solid.svg

<svg width="16" height="16" viewBox="0 0 16 16" fill="none" xmlns="http://www.w3.org/2000/svg">
<g clip-path="url(#clip0_791_2869)">
<path fill-rule="evenodd" clip-rule="evenodd" d="M8.25699 1.071L15.757 5.571C15.8311 5.61539 15.8925 5.67825 15.9351 5.75344C15.9778 5.82862 16.0002 5.91357 16.0002 6C16.0002 6.08643 15.9778 6.17138 15.9351 6.24656C15.8925 6.32175 15.8311 6.38461 15.757 6.429L8.25699 10.929C8.17934 10.9755 8.09052 11.0001 7.99999 11.0001C7.90947 11.0001 7.82064 10.9755 7.74299 10.929L0.242991 6.429C0.168837 6.38461 0.107457 6.32175 0.0648376 6.24656C0.0222184 6.17138 -0.00018398 6.08643 -0.00018398 6C-0.00018398 5.91357 0.0222184 5.82862 0.0648376 5.75344C0.107457 5.67825 0.168837 5.61539 0.242991 5.571L7.74299 1.071C7.82064 1.02447 7.90947 0.999895 7.99999 0.999895C8.09052 0.999895 8.17934 1.02447 8.25699 1.071ZM9.28199 12.644L15.082 9.166L15.757 9.566C15.8311 9.61039 15.8925 9.67325 15.9351 9.74844C15.9778 9.82362 16.0002 9.90857 16.0002 9.995C16.0002 10.0814 15.9778 10.1664 15.9351 10.2416C15.8925 10.3168 15.8311 10.3796 15.757 10.424L8.25699 14.924C8.17934 14.9705 8.09052 14.9951 7.99999 14.9951C7.90947 14.9951 7.82064 14.9705 7.74299 14.924L0.242991 10.424C0.168837 10.3796 0.107457 10.3168 0.0648376 10.2416C0.0222184 10.1664 -0.00018398 10.0814 -0.00018398 9.995C-0.00018398 9.90857 0.0222184 9.82362 0.0648376 9.74844C0.107457 9.67325 0.168837 9.61039 0.242991 9.566L0.917991 9.166L6.71199 12.644C7.10024 12.8766 7.54437 12.9995 7.99699 12.9995C8.44961 12.9995 8.89374 12.8766 9.28199 12.644Z" fill="black"/>
</g>
<defs>
<clipPath id="clip0_791_2869">
<rect width="16" height="16" fill="white"/>
</clipPath>
</defs>
</svg>

<svg width="16" height="16" viewBox="0 0 16 16" xmlns="http://www.w3.org/2000/svg"><g clip-path="url(#a)"><path fill-rule="evenodd" clip-rule="evenodd" d="m8.257 1.071 7.5 4.5a.5.5 0 0 1 0 .858l-7.5 4.5a.5.5 0 0 1-.514 0l-7.5-4.5a.5.5 0 0 1 0-.858l7.5-4.5a.5.5 0 0 1 .514 0Zm1.025 11.573 5.8-3.478.675.4a.5.5 0 0 1 0 .858l-7.5 4.5a.5.5 0 0 1-.514 0l-7.5-4.5a.5.5 0 0 1 0-.858l.675-.4 5.794 3.478a2.5 2.5 0 0 0 2.57 0Z"/></g><defs><clipPath id="a"><path fill="#fff" d="M0 0h16v16H0z"/></clipPath></defs></svg>
